symbols/web/enhanced_encryption/materialsymbolssharp/enhanced_encryption_wght100fill1_48px.svg

<svg xmlns="http://www.w3.org/2000/svg" height="48" width="48"><path d="M10.6 41.4V18.7h6.15v-4.25q0-3.05 2.1-5.15 2.1-2.1 5.15-2.1 3.05 0 5.15 2.1 2.1 2.1 2.1 5.15v4.25h6.15v22.7Zm7.25-22.7h12.3v-4.25q0-2.55-1.8-4.35-1.8-1.8-4.35-1.8t-4.35 1.8q-1.8 1.8-1.8 4.35Zm5.6 18.05h1.1V30.5h6.25v-1.1h-6.25v-6.2h-1.1v6.2h-6.2v1.1h6.2Z"/></svg>

<svg xmlns="http://www.w3.org/2000/svg" height="48" width="48"><path d="M10.6 41.4V18.7H16.75V14.45Q16.75 11.4 18.85 9.3Q20.95 7.2 24 7.2Q27.05 7.2 29.15 9.3Q31.25 11.4 31.25 14.45V18.7H37.4V41.4ZM17.85 18.7H30.15V14.45Q30.15 11.9 28.35 10.1Q26.55 8.3 24 8.3Q21.45 8.3 19.65 10.1Q17.85 11.9 17.85 14.45ZM23.45 36.75H24.55V30.5H30.8V29.4H24.55V23.2H23.45V29.4H17.25V30.5H23.45Z"/></svg>
